src/public/icons/serenity.svg

<svg width="105" height="28" viewBox="0 0 105 28" fill="none" xmlns="http://www.w3.org/2000/svg">
<path d="M5.68037 6C6.49185 6 7.30333 6.08671 8.02465 6.26012C8.74597 6.43353 9.51237 6.737 10.3238 7.12718V10.1619C9.55745 9.685 8.74597 9.33817 7.8894 9.0347C7.03284 8.73123 6.26644 8.60118 5.59021 8.60118C5.00414 8.60118 4.55331 8.68788 4.23774 8.90465C3.92216 9.12141 3.74183 9.42488 3.74183 9.7717C3.74183 9.98847 3.87708 10.2052 4.14757 10.422C4.41807 10.6388 5.13938 11.0289 6.3566 11.6359C8.06973 12.4596 9.28695 13.2399 9.96319 13.9336C10.6394 14.6272 11.0001 15.4943 11.0001 16.4914C11.0001 17.8787 10.5042 18.9625 9.46728 19.7862C8.47547 20.5666 7.07792 21.0001 5.36479 21.0001C4.28282 21.0001 3.29101 20.8701 2.34428 20.6533C1.39755 20.4365 0.631152 20.1331 0.0450823 19.8296V16.6648C2.07379 17.7486 3.69675 18.2255 5.00414 18.2255C5.68037 18.2255 6.22136 18.0955 6.6271 17.8787C7.03284 17.6619 7.25825 17.3585 7.25825 16.9683C7.25825 16.7515 7.16809 16.5348 7.03284 16.3613C6.89759 16.1879 6.67218 15.9712 6.3566 15.7978C6.04103 15.581 5.0943 15.1475 3.51642 14.3671C2.2992 13.8035 1.39755 13.1966 0.811481 12.5463C0.270494 11.896 0 11.1156 0 10.2052C0 8.90465 0.540988 7.90753 1.57788 7.12718C2.61477 6.39018 3.96724 6 5.68037 6Z" fill="black"/>
<path d="M19.1509 6C21.2488 6 22.9185 6.69566 24.1601 8.04349C25.4017 9.39133 26.0011 11.3044 26.0011 13.6957V14.2609H15.8542C16.0255 15.5653 16.4964 16.5653 17.2671 17.261C18.0805 17.9566 19.1509 18.3044 20.5637 18.3044C21.4628 18.3044 22.3191 18.1305 23.1754 17.8262C23.9888 17.5218 24.8879 17.0436 25.7442 16.3914V19.2175C24.0745 20.4349 22.0194 21.0001 19.6646 21.0001C17.3955 21.0001 15.5545 20.3045 14.1417 18.9131C12.7288 17.5218 12.001 15.6957 12.001 13.3914C12.001 11.174 12.6432 9.39133 13.9704 8.00001C15.2976 6.6087 17.053 6 19.1509 6ZM22.4475 12C22.3619 10.9566 22.0194 10.1305 21.5056 9.52176C20.9919 8.91306 20.264 8.60871 19.3221 8.60871C18.3802 8.60871 17.6096 8.91306 17.053 9.47829C16.4964 10.0435 16.1111 10.8696 15.9398 12H22.4475Z" fill="black"/>
<path d="M39.9991 6.74781C39.7252 6.57185 39.497 6.43989 39.2688 6.35191C38.7667 6.13197 38.219 6 37.6713 6C36.8041 6 35.9825 6.30792 35.2522 6.96775C34.5219 7.58359 33.7916 8.63932 33.0613 10.047H33.0157V6.30792H28.999V21.0001H33.0157V14.2699C33.0157 13.522 33.1982 12.8182 33.5634 12.0704C33.9285 11.3226 34.4306 10.7508 35.024 10.3109C35.6173 9.871 36.2563 9.65105 36.8497 9.65105C37.3518 9.65105 37.9908 9.871 38.7211 10.3109L39.9991 6.74781Z" fill="black"/>
<path d="M64.6901 6C66.3106 6 67.5711 6.52786 68.5614 7.5396C69.5068 8.55134 70.002 9.91499 70.002 11.6305V20.9561H66.0405V12.0264C66.0405 11.0587 65.8155 10.3109 65.3203 9.78302C64.8701 9.21117 64.2399 8.94724 63.4296 8.94724C62.7994 8.94724 62.2592 9.12319 61.719 9.4751C61.1788 9.82701 60.5936 10.3989 59.9634 11.2346V21.0001H56.002V6.26393H59.9634V8.3314C60.6836 7.49561 61.4489 6.87977 62.2142 6.52786C62.9794 6.17595 63.7897 6 64.6901 6Z" fill="black"/>
<path d="M83.6263 3H83.9246V6.73429H91.0001V9.5455H83.9246V16.0071C83.9246 16.6365 84.1378 17.14 84.5214 17.5176C84.905 17.8952 85.4164 18.105 86.0984 18.105C86.9509 18.105 87.9738 17.8113 89.1247 17.1819V20.119C87.7607 20.7064 86.5247 21.0001 85.3312 21.0001C83.7115 21.0001 82.4754 20.5805 81.5804 19.6994C80.6853 18.8183 80.2164 17.6854 80.2164 16.2169V9.50354H78V8.91613L83.6263 3Z" fill="black"/>
<path d="M92.3573 7L95.9791 14.515L99.6467 7H104.002L93.4117 28.0002H89.1022L93.9619 18.3977L88.002 7H92.3573Z" fill="black"/>
<path d="M47.1289 6C49.2332 6 50.9081 6.69566 52.1535 8.04349C53.3989 9.39133 54.0001 11.3044 54.0001 13.6957V14.2609H43.8651C44.0368 15.5653 44.5092 16.5653 45.2822 17.261C46.0982 17.9566 47.1718 18.3044 48.589 18.3044C49.4909 18.3044 50.3498 18.1305 51.2087 17.8262C52.0246 17.5218 52.9265 17.0436 53.7854 16.3914V19.2175C52.1105 20.4349 50.0492 21.0001 47.6872 21.0001C45.4111 21.0001 43.5644 20.3045 42.1473 18.9131C40.7301 17.5218 40 15.6957 40 13.3914C40 11.174 40.6442 9.39133 41.9755 8.00001C43.3068 6.6087 45.0246 6 47.1289 6ZM50.4357 12C50.3498 10.9566 50.0062 10.1305 49.4909 9.52176C48.9755 8.91306 48.2455 8.60871 47.3007 8.60871C46.3559 8.60871 45.5829 8.91306 45.0246 9.47829C44.4663 10.0435 44.0798 10.8696 43.908 12H50.4357Z" fill="black"/>
<path d="M73.9798 0C74.5455 0 74.9899 0.215166 75.394 0.645497C75.798 1.07583 76 1.54919 76 2.15166C76 2.71109 75.798 3.22748 75.4344 3.65781C75.0303 4.08814 74.5859 4.30331 74.0202 4.30331C73.495 4.30331 73.0101 4.08814 72.6061 3.65781C72.202 3.22748 72 2.71109 72 2.15166C72 1.54919 72.202 1.03279 72.6061 0.645497C73.0101 0.215166 73.4546 0 73.9798 0ZM75.7576 21.0002H72.202V6.6271H75.7576V21.0002Z" fill="black"/>
</svg>

<?xml version="1.0" encoding="utf-8"?>
<!-- Generator: Adobe Illustrator 26.0.3, SVG Export Plug-In . SVG Version: 6.00 Build 0)  -->
<svg version="1.1" id="Слой_1" xmlns="http://www.w3.org/2000/svg" xmlns:xlink="http://www.w3.org/1999/xlink" x="0px" y="0px"
	 viewBox="0 0 105 28" style="enable-background:new 0 0 105 28;" xml:space="preserve">
<path d="M5.7,6C6.5,6,7.3,6.1,8,6.3s1.5,0.5,2.3,0.9v3C9.6,9.7,8.7,9.3,7.9,9C7,8.7,6.3,8.6,5.6,8.6c-0.6,0-1,0.1-1.4,0.3
	C3.9,9.1,3.7,9.4,3.7,9.8c0,0.2,0.1,0.4,0.4,0.7c0.3,0.2,1,0.6,2.2,1.2c1.7,0.8,2.9,1.6,3.6,2.3c0.7,0.7,1,1.6,1,2.6
	c0,1.4-0.5,2.5-1.5,3.3c-1,0.8-2.4,1.2-4.1,1.2c-1.1,0-2.1-0.1-3-0.3c-0.9-0.2-1.7-0.5-2.3-0.8v-3.2c2,1.1,3.7,1.6,5,1.6
	c0.7,0,1.2-0.1,1.6-0.3s0.6-0.5,0.6-0.9c0-0.2-0.1-0.4-0.2-0.6c-0.1-0.2-0.4-0.4-0.7-0.6c-0.3-0.2-1.3-0.7-2.8-1.4
	c-1.2-0.6-2.1-1.2-2.7-1.8C0.3,11.9,0,11.1,0,10.2c0-1.3,0.5-2.3,1.6-3.1C2.6,6.4,4,6,5.7,6z"/>
<path d="M19.2,6c2.1,0,3.8,0.7,5,2c1.2,1.3,1.8,3.3,1.8,5.7v0.6H15.9c0.2,1.3,0.6,2.3,1.4,3c0.8,0.7,1.9,1,3.3,1
	c0.9,0,1.8-0.2,2.6-0.5c0.8-0.3,1.7-0.8,2.6-1.4v2.8C24.1,20.4,22,21,19.7,21c-2.3,0-4.1-0.7-5.5-2.1c-1.4-1.4-2.1-3.2-2.1-5.5
	c0-2.2,0.6-4,2-5.4C15.3,6.6,17.1,6,19.2,6z M22.4,12c-0.1-1-0.4-1.9-0.9-2.5c-0.5-0.6-1.2-0.9-2.2-0.9s-1.7,0.3-2.3,0.9
	c-0.6,0.6-0.9,1.4-1.1,2.5H22.4z"/>
<path d="M40,6.7c-0.3-0.2-0.5-0.3-0.7-0.4c-0.5-0.2-1-0.4-1.6-0.4c-0.9,0-1.7,0.3-2.4,1c-0.7,0.6-1.5,1.7-2.2,3.1h0V6.3h-4V21h4
	v-6.7c0-0.7,0.2-1.5,0.5-2.2c0.4-0.7,0.9-1.3,1.5-1.8c0.6-0.4,1.2-0.7,1.8-0.7c0.5,0,1.1,0.2,1.9,0.7L40,6.7z"/>
<path d="M64.7,6c1.6,0,2.9,0.5,3.9,1.5c0.9,1,1.4,2.4,1.4,4.1V21h-4V12c0-1-0.2-1.7-0.7-2.2c-0.5-0.6-1.1-0.8-1.9-0.8
	c-0.6,0-1.2,0.2-1.7,0.5c-0.5,0.4-1.1,0.9-1.8,1.8V21h-4V6.3h4v2.1c0.7-0.8,1.5-1.5,2.3-1.8C63,6.2,63.8,6,64.7,6z"/>
<path d="M83.6,3h0.3v3.7H91v2.8h-7.1V16c0,0.6,0.2,1.1,0.6,1.5c0.4,0.4,0.9,0.6,1.6,0.6c0.9,0,1.9-0.3,3-0.9v2.9
	c-1.4,0.6-2.6,0.9-3.8,0.9c-1.6,0-2.9-0.4-3.8-1.3c-0.9-0.9-1.4-2-1.4-3.5V9.5H78V8.9L83.6,3z"/>
<path d="M92.4,7l3.6,7.5L99.6,7h4.4L93.4,28h-4.3l4.9-9.6L88,7H92.4z"/>
<path d="M47.1,6c2.1,0,3.8,0.7,5,2c1.2,1.3,1.8,3.3,1.8,5.7v0.6H43.9c0.2,1.3,0.6,2.3,1.4,3c0.8,0.7,1.9,1,3.3,1
	c0.9,0,1.8-0.2,2.6-0.5c0.8-0.3,1.7-0.8,2.6-1.4v2.8C52.1,20.4,50,21,47.7,21c-2.3,0-4.1-0.7-5.5-2.1c-1.4-1.4-2.1-3.2-2.1-5.5
	c0-2.2,0.6-4,2-5.4C43.3,6.6,45,6,47.1,6z M50.4,12c-0.1-1-0.4-1.9-0.9-2.5c-0.5-0.6-1.2-0.9-2.2-0.9c-0.9,0-1.7,0.3-2.3,0.9
	c-0.6,0.6-0.9,1.4-1.1,2.5H50.4z"/>
<path d="M74,0c0.6,0,1,0.2,1.4,0.6C75.8,1.1,76,1.5,76,2.2c0,0.6-0.2,1.1-0.6,1.5C75,4.1,74.6,4.3,74,4.3c-0.5,0-1-0.2-1.4-0.6
	C72.2,3.2,72,2.7,72,2.2c0-0.6,0.2-1.1,0.6-1.5C73,0.2,73.5,0,74,0z M75.8,21h-3.6V6.6h3.6V21z"/>
</svg>
